svgs/thin/poo-bolt.svg

<svg xmlns="http://www.w3.org/2000/svg" viewBox="0 0 448 512"><!--! Font Awesome Pro 6.0.0-alpha3 by @fontawesome - https://fontawesome.com License - https://fontawesome.com/license (Commercial License) --><path d="M379.9 220.9c4.203-8.984 6.391-18.61 6.391-28.28c0-36.63-28.55-66.73-64.61-69.34c1.938-7.703 2.906-15.39 2.906-22.95C324.6 45 279.5 0 224 0C218.7 0 213.4 .75 208.2 1.531C205.5 1.938 203.1 3.75 202.1 6.312C200.1 8.875 201.3 11.83 202.9 14.09C211.5 26.06 216 39.91 216 54.16c0 38-31.02 68.92-69.14 68.92H131.4c-38.44 0-69.7 31.19-69.7 69.53c0 9.672 2.188 19.3 6.391 28.28C27.53 234.6 0 272.2 0 315.7C0 371 45.13 416 100.6 416H128c4.422 0 8-3.578 8-8S132.4 400 128 400H100.6C53.94 400 16 362.2 16 315.7c0-39.53 27.06-73.27 65.81-82.05C84.38 233.1 86.5 231.3 87.47 228.8C88.45 226.4 88.17 223.6 86.72 221.4c-5.969-9-9-18.7-9-28.81c0-29.52 24.09-53.53 53.7-53.53h15.44c46.95 0 85.14-38.09 85.14-84.92c0-13.28-3.156-26.25-9.234-38.14C223.2 16 223.6 16 224 16c46.64 0 84.58 37.83 84.58 84.31c0 9.141-1.75 18.58-5.188 28.03c-.8906 2.453-.5313 5.188 .9687 7.328c1.484 2.125 3.938 3.406 6.547 3.406h5.672c29.61 0 53.7 24.02 53.7 53.53c0 10.11-3.031 19.81-9 28.81c-1.453 2.188-1.734 4.953-.75 7.406c.9687 2.438 3.094 4.234 5.656 4.812C404.9 242.4 432 276.2 432 315.7C432 362.2 394.1 400 347.4 400H320c-4.422 0-8 3.578-8 8S315.6 416 320 416h27.42C402.9 416 448 371 448 315.7C448 272.2 420.5 234.6 379.9 220.9zM284 376H182.9l102.9-106.4c3.062-3.188 3-8.25-.1875-11.31s-8.25-2.969-11.31 .1875l-116 120c-2.219 2.312-2.875 5.719-1.625 8.688S160.8 392 164 392h101.1l-102.9 106.4c-3.062 3.188-3 8.25 .1875 11.31C164 511.3 165.1 512 168 512c2.094 0 4.188-.8125 5.75-2.438l116-120c2.219-2.312 2.875-5.719 1.625-8.688S287.2 376 284 376z"/></svg>

<svg xmlns="http://www.w3.org/2000/svg" viewBox="0 0 448 512"><!-- Font Awesome Pro 6.0.0-alpha2 by @fontawesome - https://fontawesome.com License - https://fontawesome.com/license (Commercial License) --><path d="M379.891 220.891C384.094 211.906 386.281 202.281 386.281 192.609C386.281 155.984 357.734 125.875 321.672 123.266C323.609 115.562 324.578 107.875 324.578 100.312C324.578 45 279.453 0 224 0C218.656 0 213.438 0.75 208.234 1.531C205.484 1.938 203.141 3.75 202.062 6.312C200.969 8.875 201.297 11.828 202.922 14.094C211.469 26.062 216 39.906 216 54.156C216 92.156 184.984 123.078 146.859 123.078H131.422C92.984 123.078 61.719 154.266 61.719 192.609C61.719 202.281 63.906 211.906 68.109 220.891C27.531 234.562 0 272.172 0 315.688C0 371 45.125 416 100.578 416H128C132.422 416 136 412.422 136 408S132.422 400 128 400H100.578C53.938 400 16 362.172 16 315.688C16 276.156 43.062 242.422 81.812 233.641C84.375 233.062 86.5 231.266 87.469 228.828C88.453 226.375 88.172 223.609 86.719 221.422C80.75 212.422 77.719 202.719 77.719 192.609C77.719 163.094 101.812 139.078 131.422 139.078H146.859C193.813 139.078 232 100.984 232 54.156C232 40.875 228.844 27.906 222.766 16.016C223.172 16 223.594 16 224 16C270.641 16 308.578 53.828 308.578 100.312C308.578 109.453 306.828 118.891 303.391 128.344C302.5 130.797 302.859 133.531 304.359 135.672C305.844 137.797 308.297 139.078 310.906 139.078H316.578C346.187 139.078 370.281 163.094 370.281 192.609C370.281 202.719 367.25 212.422 361.281 221.422C359.828 223.609 359.547 226.375 360.531 228.828C361.5 231.266 363.625 233.062 366.187 233.641C404.938 242.422 432 276.156 432 315.688C432 362.172 394.062 400 347.422 400H320C315.578 400 312 403.578 312 408S315.578 416 320 416H347.422C402.875 416 448 371 448 315.688C448 272.172 420.469 234.562 379.891 220.891ZM284 376H182.875L285.75 269.562C288.813 266.375 288.75 261.312 285.563 258.25S277.313 255.281 274.25 258.438L158.25 378.438C156.031 380.75 155.375 384.156 156.625 387.125S160.781 392 164 392H265.125L162.25 498.438C159.187 501.625 159.25 506.688 162.437 509.75C164 511.25 166 512 168 512C170.094 512 172.188 511.188 173.75 509.562L289.75 389.562C291.969 387.25 292.625 383.844 291.375 380.875S287.219 376 284 376Z"/></svg>
